public/svgs/twin/title-clone-02.svg

<svg width="569" height="235" viewBox="0 0 569 235" fill="none" xmlns="http://www.w3.org/2000/svg">
<path fill-rule="evenodd" clip-rule="evenodd" d="M0 112.6L21.3 46H40.3L61.5 112.6L60 115H49.7L45 99.8H16.5L11.7 115H1.6L0 112.6ZM19.9 88.7H41.7L31.7 57.1H29.8L19.9 88.7Z" fill="#BB1212"/>
<path fill-rule="evenodd" clip-rule="evenodd" d="M0 112.6L21.3 46H40.3L61.5 112.6L60 115H49.7L45 99.8H16.5L11.7 115H1.6L0 112.6ZM19.9 88.7H41.7L31.7 57.1H29.8L19.9 88.7Z" fill="black"/>
<path d="M87.9556 46V115H100.156V84.8H129.256V115H141.456V46H129.256V73.7H100.156V46H87.9556Z" fill="#BB1212"/>
<path d="M87.9556 46V115H100.156V84.8H129.256V115H141.456V46H129.256V73.7H100.156V46H87.9556Z" fill="black"/>
<path d="M154.463 46V115H200.863V103.9H166.663V84.8H197.863V73.7H166.663V57.1H200.863V46H154.463Z" fill="#BB1212"/>
<path d="M154.463 46V115H200.863V103.9H166.663V84.8H197.863V73.7H166.663V57.1H200.863V46H154.463Z" fill="black"/>
<path fill-rule="evenodd" clip-rule="evenodd" d="M225.027 46L203.727 112.6L205.327 115H215.427L220.227 99.8H248.727L253.427 115H263.727L265.227 112.6L244.027 46H225.027ZM245.427 88.7H223.627L233.527 57.1H235.427L245.427 88.7Z" fill="#BB1212"/>
<path fill-rule="evenodd" clip-rule="evenodd" d="M225.027 46L203.727 112.6L205.327 115H215.427L220.227 99.8H248.727L253.427 115H263.727L265.227 112.6L244.027 46H225.027ZM245.427 88.7H223.627L233.527 57.1H235.427L245.427 88.7Z" fill="black"/>
<path d="M271.659 46V115H315.059V103.9H283.859V46H271.659Z" fill="#BB1212"/>
<path d="M271.659 46V115H315.059V103.9H283.859V46H271.659Z" fill="black"/>
<path d="M306.871 46V57.1H328.571V115H340.871V57.1H362.571V46H306.871Z" fill="#BB1212"/>
<path d="M306.871 46V57.1H328.571V115H340.871V57.1H362.571V46H306.871Z" fill="black"/>
<path d="M369.518 46V115H381.718V84.8H410.818V115H423.018V46H410.818V73.7H381.718V46H369.518Z" fill="#BB1212"/>
<path d="M369.518 46V115H381.718V84.8H410.818V115H423.018V46H410.818V73.7H381.718V46H369.518Z" fill="black"/>
<path d="M436.026 46V115H448.226V46H436.026Z" fill="#BB1212"/>
<path d="M436.026 46V115H448.226V46H436.026Z" fill="black"/>
<path d="M461.225 46V115H507.625V103.9H473.425V84.8H504.625V73.7H473.425V57.1H507.625V46H461.225Z" fill="#BB1212"/>
<path d="M461.225 46V115H507.625V103.9H473.425V84.8H504.625V73.7H473.425V57.1H507.625V46H461.225Z" fill="black"/>
<path fill-rule="evenodd" clip-rule="evenodd" d="M517.088 115V46H550.288C561.155 46 566.588 51.4333 566.588 62.3V73.6C566.588 82 563.255 87.1 556.588 88.9L568.588 112.4L567.088 115H556.688L543.888 89.8H529.288V115H517.088ZM529.288 78.7H549.988C552.922 78.7 554.388 77.2333 554.388 74.3V61.4C554.388 58.5333 552.922 57.1 549.988 57.1H529.288V78.7Z" fill="#BB1212"/>
<path fill-rule="evenodd" clip-rule="evenodd" d="M517.088 115V46H550.288C561.155 46 566.588 51.4333 566.588 62.3V73.6C566.588 82 563.255 87.1 556.588 88.9L568.588 112.4L567.088 115H556.688L543.888 89.8H529.288V115H517.088ZM529.288 78.7H549.988C552.922 78.7 554.388 77.2333 554.388 74.3V61.4C554.388 58.5333 552.922 57.1 549.988 57.1H529.288V78.7Z" fill="black"/>
<path d="M0 235V152.2H14.64V221.68H52.08V235H0Z" fill="#BB1212"/>
<path d="M0 235V152.2H14.64V221.68H52.08V235H0Z" fill="black"/>
<path d="M60.3562 152.2V235H74.9962V152.2H60.3562Z" fill="#BB1212"/>
<path d="M60.3562 152.2V235H74.9962V152.2H60.3562Z" fill="black"/>
<path d="M90.5955 152.2V235H105.235V202.36H142.675V189.04H105.235V165.52H146.275V152.2H90.5955Z" fill="#BB1212"/>
<path d="M90.5955 152.2V235H105.235V202.36H142.675V189.04H105.235V165.52H146.275V152.2H90.5955Z" fill="black"/>
<path d="M155.288 235V152.2H210.968V165.52H169.928V185.44H207.368V198.76H169.928V221.68H210.968V235H155.288Z" fill="#BB1212"/>
<path d="M155.288 235V152.2H210.968V165.52H169.928V185.44H207.368V198.76H169.928V221.68H210.968V235H155.288Z" fill="black"/>
<path d="M0.100098 5.24369V15.4357C0.100098 18.4784 1.62143 19.9997 4.6641 19.9997H12.2801L13.9321 18.7117V16.8917H4.7481C3.92676 16.8917 3.5161 16.4904 3.5161 15.6877V4.99169C3.5161 4.18902 3.92676 3.78769 4.7481 3.78769H13.9321V1.96769L12.2801 0.679688H4.6641C1.62143 0.679688 0.100098 2.20102 0.100098 5.24369Z" fill="#C11111"/>
<path d="M17.7158 19.9997V0.679688H21.1318V16.8917H29.8678V19.9997H17.7158Z" fill="#C11111"/>
<path fill-rule="evenodd" clip-rule="evenodd" d="M32.6392 15.4357V5.24369C32.6392 2.20102 34.1605 0.679688 37.2032 0.679688H43.6152C46.6578 0.679688 48.1792 2.20102 48.1792 5.24369V15.4357C48.1792 18.4784 46.6578 19.9997 43.6152 19.9997H37.2032C34.1605 19.9997 32.6392 18.4784 32.6392 15.4357ZM36.0552 15.6877C36.0552 16.4904 36.4658 16.8917 37.2872 16.8917H43.5312C44.3525 16.8917 44.7632 16.4904 44.7632 15.6877V4.99169C44.7632 4.18902 44.3525 3.78769 43.5312 3.78769H37.2872C36.4658 3.78769 36.0552 4.18902 36.0552 4.99169V15.6877Z" fill="#C11111"/>
<path d="M52.6611 19.9997V0.679688H56.3851L64.9531 14.4557V0.679688H68.3691V19.9997H64.6731L56.0771 6.22369V19.9997H52.6611Z" fill="#C11111"/>
<path d="M73.1416 19.9997V0.679688H86.1336V3.78769H76.5576V8.43569H85.2936V11.5437H76.5576V16.8917H86.1336V19.9997H73.1416Z" fill="#C11111"/>
<path fill-rule="evenodd" clip-rule="evenodd" d="M106.334 5.24369V15.4357C106.334 18.4784 107.855 19.9997 110.898 19.9997H114.818C117.86 19.9997 119.382 18.4784 119.382 15.4357V5.24369C119.382 2.20102 117.86 0.679688 114.818 0.679688H110.898C107.855 0.679688 106.334 2.20102 106.334 5.24369ZM110.982 16.8917C110.179 16.8917 109.778 16.4904 109.778 15.6877V4.99169C109.778 4.18902 110.179 3.78769 110.982 3.78769H114.734C115.536 3.78769 115.938 4.18902 115.938 4.99169V15.6877C115.938 16.4904 115.536 16.8917 114.734 16.8917H110.982Z" fill="#C11111"/>
<path d="M122.521 19.9997V13.8677C122.521 11.385 123.613 9.91969 125.797 9.47169L131.173 8.37969C131.808 8.24902 132.125 7.82902 132.125 7.11969V4.99169C132.125 4.18902 131.724 3.78769 130.921 3.78769H123.081V1.96769L124.733 0.679688H131.005C134.048 0.679688 135.569 2.20102 135.569 5.24369V7.03569C135.569 9.51836 134.477 10.9837 132.293 11.4317L126.917 12.5237C126.283 12.6544 125.965 13.0744 125.965 13.7837V16.8917H135.569V19.9997H122.521Z" fill="#C11111"/>
<path d="M103 17H89V20H103V17Z" fill="#C11111"/>
</svg>

<svg xmlns="http://www.w3.org/2000/svg" width="569" height="235" fill="none" viewBox="0 0 569 235"><path fill="#bb1212" fill-rule="evenodd" d="M0 112.6 21.3 46h19l21.2 66.6L60 115H49.7L45 99.8H16.5L11.7 115H1.6zm19.9-23.9h21.8l-10-31.6h-1.9z" clip-rule="evenodd"/><path fill="#000" fill-rule="evenodd" d="M0 112.6 21.3 46h19l21.2 66.6L60 115H49.7L45 99.8H16.5L11.7 115H1.6zm19.9-23.9h21.8l-10-31.6h-1.9z" clip-rule="evenodd"/><path fill="#bb1212" d="M87.956 46v69h12.2V84.8h29.1V115h12.2V46h-12.2v27.7h-29.1V46z"/><path fill="#000" d="M87.956 46v69h12.2V84.8h29.1V115h12.2V46h-12.2v27.7h-29.1V46z"/><path fill="#bb1212" d="M154.463 46v69h46.4v-11.1h-34.2V84.8h31.2V73.7h-31.2V57.1h34.2V46z"/><path fill="#000" d="M154.463 46v69h46.4v-11.1h-34.2V84.8h31.2V73.7h-31.2V57.1h34.2V46z"/><path fill="#bb1212" fill-rule="evenodd" d="m225.027 46-21.3 66.6 1.6 2.4h10.1l4.8-15.2h28.5l4.7 15.2h10.3l1.5-2.4-21.2-66.6zm20.4 42.7h-21.8l9.9-31.6h1.9z" clip-rule="evenodd"/><path fill="#000" fill-rule="evenodd" d="m225.027 46-21.3 66.6 1.6 2.4h10.1l4.8-15.2h28.5l4.7 15.2h10.3l1.5-2.4-21.2-66.6zm20.4 42.7h-21.8l9.9-31.6h1.9z" clip-rule="evenodd"/><path fill="#bb1212" d="M271.659 46v69h43.4v-11.1h-31.2V46z"/><path fill="#000" d="M271.659 46v69h43.4v-11.1h-31.2V46z"/><path fill="#bb1212" d="M306.871 46v11.1h21.7V115h12.3V57.1h21.7V46z"/><path fill="#000" d="M306.871 46v11.1h21.7V115h12.3V57.1h21.7V46z"/><path fill="#bb1212" d="M369.518 46v69h12.2V84.8h29.1V115h12.2V46h-12.2v27.7h-29.1V46z"/><path fill="#000" d="M369.518 46v69h12.2V84.8h29.1V115h12.2V46h-12.2v27.7h-29.1V46z"/><path fill="#bb1212" d="M436.026 46v69h12.2V46z"/><path fill="#000" d="M436.026 46v69h12.2V46z"/><path fill="#bb1212" d="M461.225 46v69h46.4v-11.1h-34.2V84.8h31.2V73.7h-31.2V57.1h34.2V46z"/><path fill="#000" d="M461.225 46v69h46.4v-11.1h-34.2V84.8h31.2V73.7h-31.2V57.1h34.2V46z"/><path fill="#bb1212" fill-rule="evenodd" d="M517.088 115V46h33.2q16.3 0 16.3 16.3v11.3q0 12.6-10 15.3l12 23.5-1.5 2.6h-10.4l-12.8-25.2h-14.6V115zm12.2-36.3h20.7q4.4 0 4.4-4.4V61.4q0-4.3-4.4-4.3h-20.7z" clip-rule="evenodd"/><path fill="#000" fill-rule="evenodd" d="M517.088 115V46h33.2q16.3 0 16.3 16.3v11.3q0 12.6-10 15.3l12 23.5-1.5 2.6h-10.4l-12.8-25.2h-14.6V115zm12.2-36.3h20.7q4.4 0 4.4-4.4V61.4q0-4.3-4.4-4.3h-20.7z" clip-rule="evenodd"/><path fill="#bb1212" d="M0 235v-82.8h14.64v69.48h37.44V235z"/><path fill="#000" d="M0 235v-82.8h14.64v69.48h37.44V235z"/><path fill="#bb1212" d="M60.356 152.2V235h14.64v-82.8z"/><path fill="#000" d="M60.356 152.2V235h14.64v-82.8z"/><path fill="#bb1212" d="M90.596 152.2V235h14.639v-32.64h37.44v-13.32h-37.44v-23.52h41.04V152.2z"/><path fill="#000" d="M90.596 152.2V235h14.639v-32.64h37.44v-13.32h-37.44v-23.52h41.04V152.2z"/><path fill="#bb1212" d="M155.288 235v-82.8h55.68v13.32h-41.04v19.92h37.44v13.32h-37.44v22.92h41.04V235z"/><path fill="#000" d="M155.288 235v-82.8h55.68v13.32h-41.04v19.92h37.44v13.32h-37.44v22.92h41.04V235z"/><path fill="#c11111" d="M.1 5.244v10.192Q.1 19.999 4.664 20h7.616l1.652-1.288v-1.82H4.748q-1.232 0-1.232-1.204V4.992q0-1.204 1.232-1.204h9.184v-1.82L12.28.68H4.664Q.1.68.1 5.244M17.716 20V.68h3.416v16.212h8.736V20z"/><path fill="#c11111" fill-rule="evenodd" d="M32.64 15.436V5.244Q32.64.68 37.202.68h6.412q4.564 0 4.564 4.564v10.192q0 4.563-4.564 4.564h-6.412q-4.564 0-4.564-4.564m3.415.252q0 1.203 1.232 1.204h6.244q1.233 0 1.232-1.204V4.992q0-1.204-1.232-1.204h-6.244q-1.232 0-1.232 1.204z" clip-rule="evenodd"/><path fill="#c11111" d="M52.661 20V.68h3.724l8.568 13.776V.68h3.416V20h-3.696L56.077 6.224V20zM73.142 20V.68h12.992v3.108h-9.576v4.648h8.736v3.108h-8.736v5.348h9.576V20z"/><path fill="#c11111" fill-rule="evenodd" d="M106.334 5.244v10.192q0 4.563 4.564 4.564h3.92q4.564 0 4.564-4.564V5.244q0-4.564-4.564-4.564h-3.92q-4.564 0-4.564 4.564m4.648 11.648q-1.204 0-1.204-1.204V4.992q0-1.204 1.204-1.204h3.752q1.204 0 1.204 1.204v10.696q0 1.203-1.204 1.204z" clip-rule="evenodd"/><path fill="#c11111" d="M122.521 20v-6.132q0-3.724 3.276-4.396l5.376-1.092q.952-.197.952-1.26V4.992q0-1.204-1.204-1.204h-7.84v-1.82L124.733.68h6.272q4.564 0 4.564 4.564v1.792q0 3.724-3.276 4.396l-5.376 1.092q-.952.195-.952 1.26v3.108h9.604V20zM103 17H89v3h14z"/></svg>
